src/assets/svg/icons/fa/nuevos/classic/light/barcode classic light.svg

<svg xmlns="http://www.w3.org/2000/svg" viewBox="0 0 512 512"><path d="M0 48C0 39.16 7.164 32 16 32C24.84 32 32 39.16 32 48V464C32 472.8 24.84 480 16 480C7.164 480 0 472.8 0 464V48zM64 48C64 39.16 71.16 32 80 32C88.84 32 96 39.16 96 48V464C96 472.8 88.84 480 80 480C71.16 480 64 472.8 64 464V48zM160 48V464C160 472.8 152.8 480 144 480C135.2 480 128 472.8 128 464V48C128 39.16 135.2 32 144 32C152.8 32 160 39.16 160 48zM224 48C224 39.16 231.2 32 240 32C248.8 32 256 39.16 256 48V464C256 472.8 248.8 480 240 480C231.2 480 224 472.8 224 464V48zM320 48V464C320 472.8 312.8 480 304 480C295.2 480 288 472.8 288 464V48C288 39.16 295.2 32 304 32C312.8 32 320 39.16 320 48zM384 48C384 39.16 391.2 32 400 32C408.8 32 416 39.16 416 48V464C416 472.8 408.8 480 400 480C391.2 480 384 472.8 384 464V48zM512 48V464C512 472.8 504.8 480 496 480C487.2 480 480 472.8 480 464V48C480 39.16 487.2 32 496 32C504.8 32 512 39.16 512 48z"/></svg>

<svg xmlns="http://www.w3.org/2000/svg" viewBox="0 0 512 512"><!--! Font Awesome Pro 6.4.0 by @fontawesome - https://fontawesome.com License - https://fontawesome.com/license (Commercial License) Copyright 2023 Fonticons, Inc. --><path d="M0 48c0-8.8 7.2-16 16-16s16 7.2 16 16V464c0 8.8-7.2 16-16 16s-16-7.2-16-16V48zm64 0c0-8.8 7.2-16 16-16s16 7.2 16 16V464c0 8.8-7.2 16-16 16s-16-7.2-16-16V48zm80-16c8.8 0 16 7.2 16 16V464c0 8.8-7.2 16-16 16s-16-7.2-16-16V48c0-8.8 7.2-16 16-16zm80 16c0-8.8 7.2-16 16-16s16 7.2 16 16V464c0 8.8-7.2 16-16 16s-16-7.2-16-16V48zm80-16c8.8 0 16 7.2 16 16V464c0 8.8-7.2 16-16 16s-16-7.2-16-16V48c0-8.8 7.2-16 16-16zm80 16c0-8.8 7.2-16 16-16s16 7.2 16 16V464c0 8.8-7.2 16-16 16s-16-7.2-16-16V48zM496 32c8.8 0 16 7.2 16 16V464c0 8.8-7.2 16-16 16s-16-7.2-16-16V48c0-8.8 7.2-16 16-16z"/></svg>
